src/main/webapp/img/lib/ibm/vpc/VPNPolicy.svg

<?xml version="1.0" encoding="UTF-8" standalone="no"?>
<svg
   xmlns:dc="http://purl.org/dc/elements/1.1/"
   xmlns:cc="http://creativecommons.org/ns#"
   xmlns:rdf="http://www.w3.org/1999/02/22-rdf-syntax-ns#"
   xmlns:svg="http://www.w3.org/2000/svg"
   xmlns="http://www.w3.org/2000/svg"
   xmlns:sodipodi="http://sodipodi.sourceforge.net/DTD/sodipodi-0.dtd"
   xmlns:inkscape="http://www.inkscape.org/namespaces/inkscape"
   contentScriptType="text/ecmascript"
   zoomAndPan="magnify"
   contentStyleType="text/css"
   id="svg903"
   sodipodi:docname="VPNPolicy.svg"
   style="font-size:12px;overflow:visible;color-interpolation-filters:sRGB;fill:none;fill-rule:evenodd;stroke-linecap:square;stroke-miterlimit:3"
   version="1.1"
   width="1.0416666in"
   xml:space="preserve"
   preserveAspectRatio="xMidYMid meet"
   inkscape:version="0.92.3 (2405546, 2018-03-11)"
   viewBox="0 0 74.99995 74.999941"
   height="1.0416666in"
   class="st2"><metadata
   id="metadata1210"><rdf:RDF><cc:Work
       rdf:about=""><dc:format>image/svg+xml</dc:format><dc:type
         rdf:resource="http://purl.org/dc/dcmitype/StillImage" /><dc:title></dc:title></cc:Work></rdf:RDF></metadata><defs
   id="defs1208" /><sodipodi:namedview
   pagecolor="#ffffff"
   bordercolor="#666666"
   borderopacity="1"
   objecttolerance="10"
   gridtolerance="10"
   guidetolerance="10"
   inkscape:pageopacity="0"
   inkscape:pageshadow="2"
   inkscape:window-width="1920"
   inkscape:window-height="1017"
   id="namedview1206"
   showgrid="false"
   inkscape:zoom="4.3350002"
   inkscape:cx="31.801069"
   inkscape:cy="46.903352"
   inkscape:window-x="-8"
   inkscape:window-y="-8"
   inkscape:window-maximized="1"
   inkscape:current-layer="svg903" />     
    <circle
   fill="#e2002f"
   r="37.499973"
   cx="37.499973"
   cy="37.499973"
   id="circle1201"
   style="fill:#92c24b;fill-opacity:1;opacity:1" />               
    <path
   id="path1262"
   style="color:#000000;font-style:normal;font-variant:normal;font-weight:normal;font-stretch:normal;font-size:medium;line-height:normal;font-family:sans-serif;font-variant-ligatures:normal;font-variant-position:normal;font-variant-caps:normal;font-variant-numeric:normal;font-variant-alternates:normal;font-feature-settings:normal;text-indent:0;text-align:start;text-decoration:none;text-decoration-line:none;text-decoration-style:solid;text-decoration-color:#000000;letter-spacing:normal;word-spacing:normal;text-transform:none;writing-mode:lr-tb;direction:ltr;text-orientation:mixed;dominant-baseline:auto;baseline-shift:baseline;text-anchor:start;white-space:normal;shape-padding:0;clip-rule:nonzero;display:inline;overflow:visible;visibility:visible;opacity:1;isolation:auto;mix-blend-mode:normal;color-interpolation:sRGB;color-interpolation-filters:linearRGB;solid-color:#000000;solid-opacity:1;vector-effect:none;fill:#ffffff;fill-opacity:1;fill-rule:nonzero;stroke:none;stroke-width:1.4173218;stroke-linecap:butt;stroke-linejoin:miter;stroke-miterlimit:3;stroke-dasharray:none;stroke-dashoffset:0;stroke-opacity:1;color-rendering:auto;image-rendering:auto;shape-rendering:auto;text-rendering:auto;enable-background:accumulate"
   d="m 17.474609,44.900391 v 1.417968 h 19.50586 V 44.900391 Z M 13.458968,34.71389 H 61.245627 V 52.768127 H 13.458968 Z m 0.06117,-10.84897 H 61.46497 v 6.253707 H 13.520136 Z M 8.7871094,18.587891 V 19.4375 57.367188 H 65.677734 V 18.587891 Z m 1.7011716,1.701171 H 63.978516 V 55.667969 H 10.488281 Z" /></svg>

<svg xmlns="http://www.w3.org/2000/svg" contentScriptType="text/ecmascript" zoomAndPan="magnify" contentStyleType="text/css" width="100.032" preserveAspectRatio="xMidYMid meet" viewBox="0 0 75 75" height="100.032" overflow="visible" color-interpolation-filters="sRGB" fill="none" fill-rule="evenodd" stroke-linecap="square" stroke-miterlimit="3"><circle fill="#92c24b" r="37.5" cx="37.5" cy="37.5"/><path d="M17.475 44.9v1.418H36.98V44.9zM13.46 34.714h47.787v18.054H13.46zm.06-10.85h47.945v6.254H13.52zm-4.733-5.277v38.78h56.89v-38.78zm1.7 1.7h53.5v35.38h-53.5z" dominant-baseline="auto" fill="#fff" fill-rule="nonzero"/></svg>
